X:242
T:Jeremy Reel
C:Darol Anger
N:Transcribed by Tristan Scroggins
R:bluegrass
L:1/8
Q:1/4=200
M:4/4
K:Bb
G,A, |: B,F cF dB FD | EG FE DB, {C}B,A, | B,F cF dB FE | _Ac BA GE2A, | B,F cF dB FD | 
EG FE DF _Ac | B_A GB eg fe |1 db fe dB2A, :|2 db fe dB ba | bf dB eg ff | df ce dB2a | 
bf dB fd Bg | fe dc BG FD | GB df a2 gd | eg b{b}d'2c' bc' | ab ga fg (3efe | 
de cd B{c}B AA, | B,F cF dB FD | EG FE DB, {C}B,A, | B,F cF dB FE | _Ac BA GE2A, | 
B,F cF dB FD | EG FE DF _Ac | B_A GB eg fe | db fe dB3 | =EC EG FD FA | G=E GB A_G2D | 
GD GB A_G Ac | BG Bd _dA2A | dA df =e_d eg | _gd ga =g=e gb | ag f=e _ed cB | 
AG FD EF c2 | 


